apps/scalable/AVIMetaEdit.svg

<svg xmlns="http://www.w3.org/2000/svg" style="isolation:isolate" width="256" height="256"><defs><filter id="a" width="270.648" height="254.338" x="-7.32" y="2.95" filterUnits="userSpaceOnUse"><feGaussianBlur xmlns="http://www.w3.org/2000/svg" in="SourceGraphic" stdDeviation="4.294"/><feOffset xmlns="http://www.w3.org/2000/svg" dy="4" result="pf_100_offsetBlur"/><feFlood xmlns="http://www.w3.org/2000/svg" flood-opacity=".4"/><feComposite xmlns="http://www.w3.org/2000/svg" in2="pf_100_offsetBlur" operator="in" result="pf_100_dropShadow"/><feBlend xmlns="http://www.w3.org/2000/svg" in="SourceGraphic" in2="pf_100_dropShadow"/></filter></defs><path fill="#5D5D5D" d="M165.685 11.947c74.055 0 84.639 10.557 84.639 84.544v59.251c0 73.986-10.584 84.543-84.639 84.543h-75.37c-74.055 0-84.639-10.557-84.639-84.543V96.491c0-73.987 10.584-84.544 84.639-84.544h75.37z" filter="url(#a)"/><g opacity=".4"><linearGradient id="b" x1=".517" x2=".517" y2="1"><stop offset="0%" stop-color="#fff"/><stop offset="12.5%" stop-opacity=".098" stop-color="#fff"/><stop offset="92.5%" stop-opacity=".098"/><stop offset="100%" stop-opacity=".498"/></linearGradient><path fill="none" stroke="url(#b)" stroke-linecap="round" stroke-linejoin="round" stroke-width="4.077" d="M165.685 11.947c74.055 0 84.639 10.557 84.639 84.544v59.251c0 73.986-10.584 84.543-84.639 84.543h-75.37c-74.055 0-84.639-10.557-84.639-84.543V96.491c0-73.987 10.584-84.544 84.639-84.544h75.37z" vector-effect="non-scaling-stroke"/></g><path fill="#FFF" d="M128 11.947v228.338h37.685c74.055 0 84.639-10.557 84.639-84.543V96.491c0-73.987-10.584-84.544-84.639-84.544H128z" opacity=".2"/><g opacity=".3"><linearGradient id="c" x1=".5" x2=".018" y1="1" y2="1" gradientTransform="matrix(181.197 0 0 198.291 37.402 27.845)" gradientUnits="userSpaceOnUse"><stop offset="0%" stop-opacity=".972" stop-color="#fff"/><stop offset="64.572%" stop-opacity=".916" stop-color="#fff"/><stop offset="100%" stop-opacity="0" stop-color="#fff"/></linearGradient><path fill="url(#c)" d="M37.402 223.049a27.321 27.321 0 0 0 3.238 3.086h7.018v-17.094H37.402v14.008zm0-178.11h10.256V27.845H40.64a27.321 27.321 0 0 0-3.238 3.086v14.008zm17.094 181.196h10.256v-17.094H54.496v17.094zm0-181.196h10.256V27.845H54.496v17.094zM71.59 226.135h10.256v-17.094H71.59v17.094zm0-181.196h10.256V27.845H71.59v17.094zm17.094 181.196H98.94v-17.094H88.684v17.094zm0-181.196H98.94V27.845H88.684v17.094zm17.094 181.196h10.256v-17.094h-10.256v17.094zm0-181.196h10.256V27.845h-10.256v17.094zm17.094 181.196h10.256v-17.094h-10.256v17.094zm0-181.196h10.256V27.845h-10.256v17.094zm17.094 181.196h10.256v-17.094h-10.256v17.094zm0-181.196h10.256V27.845h-10.256v17.094zm17.094 181.196h10.256v-17.094H157.06v17.094zm0-181.196h10.256V27.845H157.06v17.094zm17.094 181.196h10.256v-17.094h-10.256v17.094zm0-181.196h10.256V27.845h-10.256v17.094zm17.094 181.196h10.256v-17.094h-10.256v17.094zm0-181.196h10.256V27.845h-10.256v17.094zm17.094 181.196h7.018a27.321 27.321 0 0 0 3.238-3.086v-14.008h-10.256v17.094zm0-181.196h10.256V30.931a27.321 27.321 0 0 0-3.238-3.086h-7.018v17.094z"/></g><g fill="#FFF"><path d="M189.522 156.825v-8.155H57.076v8.155h132.446zM189.522 132.36v-8.155h-48.93v8.155h48.93zM189.522 180.825v-8.155H57.076v8.155h132.446z"/></g><path fill="#FEE1C2" d="M123.299 132.36l-51.725 24.139 24.138-51.726 5.173-5.172 27.587 27.586-5.173 5.173z"/><path fill="#5D5D5D" d="M79.252 140.038l-7.678 16.461 16.46-7.678s1.628-.959.774-1.813c-.855-.855-3.426.023-3.426.023s1.709-2.602-.006-4.317c-1.714-1.715-4.316-.006-4.316-.006s.859-2.589-.003-3.451c-.862-.862-1.805.781-1.805.781z"/><linearGradient id="d" x2="1" y1="1.22" y2="1.22" gradientTransform="rotate(45 69.746 229.376) scale(39.014 127.784)" gradientUnits="userSpaceOnUse"><stop offset="0%" stop-color="#5884f4"/><stop offset="27.8%" stop-color="#5884f4"/><stop offset="27.8%" stop-color="#2f5fdd"/><stop offset="70.735%" stop-color="#2f5fdd"/><stop offset="70.936%" stop-color="#234db8"/><stop offset="100%" stop-color="#234db8"/></linearGradient><path fill="url(#d)" d="M95.712 104.773c3.449-3.448 9.483 6.035 4.311 11.207 8.621-8.621 20.69 3.449 12.069 12.07 5.173-5.173 14.656.862 11.207 4.31l86.909-86.909-27.587-27.586-86.909 86.908z"/></svg>

<svg xmlns="http://www.w3.org/2000/svg" style="isolation:isolate" width="256" height="256" viewBox="0 0 256 256">
 <defs>
  <filter id="2Y8z9TwvJkLpyw2jZLywdTHjxgjk8qPM" width="270.648" height="254.338" x="-7.32" y="2.95" filterUnits="userSpaceOnUse">
   <feGaussianBlur xmlns="http://www.w3.org/2000/svg" in="SourceGraphic" stdDeviation="4.294"/>
   <feOffset xmlns="http://www.w3.org/2000/svg" dx="0" dy="4" result="pf_100_offsetBlur"/>
   <feFlood xmlns="http://www.w3.org/2000/svg" flood-opacity=".4"/>
   <feComposite xmlns="http://www.w3.org/2000/svg" in2="pf_100_offsetBlur" operator="in" result="pf_100_dropShadow"/>
   <feBlend xmlns="http://www.w3.org/2000/svg" in="SourceGraphic" in2="pf_100_dropShadow" mode="normal"/>
  </filter>
 </defs>
 <g filter="url(#2Y8z9TwvJkLpyw2jZLywdTHjxgjk8qPM)">
  <path fill="#5D5D5D" d="M 165.685 11.947 C 239.74 11.947 250.324 22.504 250.324 96.491 L 250.324 155.742 C 250.324 229.728 239.74 240.285 165.685 240.285 L 90.315 240.285 C 16.26 240.285 5.676 229.728 5.676 155.742 L 5.676 96.491 C 5.676 22.504 16.26 11.947 90.315 11.947 L 165.685 11.947 Z"/>
 </g>
 <g opacity=".4">
  <linearGradient id="_lgradient_73" x1=".517" x2=".517" y1="0" y2="1">
   <stop offset="0%" style="stop-color:rgb(255,255,255)"/>
   <stop offset="12.5%" stop-opacity=".098" style="stop-color:rgb(255,255,255)"/>
   <stop offset="92.5%" stop-opacity=".098" style="stop-color:rgb(0,0,0)"/>
   <stop offset="100%" stop-opacity=".498" style="stop-color:rgb(0,0,0)"/>
  </linearGradient>
  <path fill="none" stroke="url(#_lgradient_73)" stroke-linecap="round" stroke-linejoin="round" stroke-width="4.077" d="M 165.685 11.947 C 239.74 11.947 250.324 22.504 250.324 96.491 L 250.324 155.742 C 250.324 229.728 239.74 240.285 165.685 240.285 L 90.315 240.285 C 16.26 240.285 5.676 229.728 5.676 155.742 L 5.676 96.491 C 5.676 22.504 16.26 11.947 90.315 11.947 L 165.685 11.947 Z" vector-effect="non-scaling-stroke"/>
 </g>
 <g opacity=".2">
  <path fill="#FFFFFF" d="M 128 11.947 L 128 240.285 L 165.685 240.285 C 239.74 240.285 250.324 229.728 250.324 155.742 L 250.324 96.491 C 250.324 22.504 239.74 11.947 165.685 11.947 L 128 11.947 Z"/>
 </g>
 <g>
  <g opacity=".3">
   <linearGradient id="_lgradient_74" x1=".5" x2=".018" y1="1" y2="1" gradientTransform="matrix(181.197,0,0,198.291,37.402,27.845)" gradientUnits="userSpaceOnUse">
    <stop offset="0%" stop-opacity=".972" style="stop-color:rgb(255,255,255)"/>
    <stop offset="64.572%" stop-opacity=".916" style="stop-color:rgb(255,255,255)"/>
    <stop offset="100%" stop-opacity="0" style="stop-color:rgb(255,255,255)"/>
   </linearGradient>
   <path fill="url(#_lgradient_74)" d="M 37.402 223.049 C 38.395 224.164 39.472 225.191 40.64 226.135 L 47.658 226.135 L 47.658 209.041 L 37.402 209.041 L 37.402 223.049 Z M 37.402 44.939 L 47.658 44.939 L 47.658 27.845 L 40.64 27.845 C 39.472 28.789 38.395 29.816 37.402 30.931 L 37.402 44.939 Z M 54.496 226.135 L 64.752 226.135 L 64.752 209.041 L 54.496 209.041 L 54.496 226.135 Z M 54.496 44.939 L 64.752 44.939 L 64.752 27.845 L 54.496 27.845 L 54.496 44.939 Z M 71.59 226.135 L 81.846 226.135 L 81.846 209.041 L 71.59 209.041 L 71.59 226.135 Z M 71.59 44.939 L 81.846 44.939 L 81.846 27.845 L 71.59 27.845 L 71.59 44.939 Z M 88.684 226.135 L 98.94 226.135 L 98.94 209.041 L 88.684 209.041 L 88.684 226.135 Z M 88.684 44.939 L 98.94 44.939 L 98.94 27.845 L 88.684 27.845 L 88.684 44.939 Z M 105.778 226.135 L 116.034 226.135 L 116.034 209.041 L 105.778 209.041 L 105.778 226.135 Z M 105.778 44.939 L 116.034 44.939 L 116.034 27.845 L 105.778 27.845 L 105.778 44.939 Z M 122.872 226.135 L 133.128 226.135 L 133.128 209.041 L 122.872 209.041 L 122.872 226.135 Z M 122.872 44.939 L 133.128 44.939 L 133.128 27.845 L 122.872 27.845 L 122.872 44.939 Z M 139.966 226.135 L 150.222 226.135 L 150.222 209.041 L 139.966 209.041 L 139.966 226.135 Z M 139.966 44.939 L 150.222 44.939 L 150.222 27.845 L 139.966 27.845 L 139.966 44.939 Z M 157.06 226.135 L 167.316 226.135 L 167.316 209.041 L 157.06 209.041 L 157.06 226.135 Z M 157.06 44.939 L 167.316 44.939 L 167.316 27.845 L 157.06 27.845 L 157.06 44.939 Z M 174.154 226.135 L 184.41 226.135 L 184.41 209.041 L 174.154 209.041 L 174.154 226.135 Z M 174.154 44.939 L 184.41 44.939 L 184.41 27.845 L 174.154 27.845 L 174.154 44.939 Z M 191.248 226.135 L 201.504 226.135 L 201.504 209.041 L 191.248 209.041 L 191.248 226.135 Z M 191.248 44.939 L 201.504 44.939 L 201.504 27.845 L 191.248 27.845 L 191.248 44.939 Z M 208.342 226.135 L 215.36 226.135 C 216.528 225.191 217.605 224.164 218.598 223.049 L 218.598 209.041 L 208.342 209.041 L 208.342 226.135 Z M 208.342 44.939 L 218.598 44.939 L 218.598 30.931 C 217.605 29.816 216.528 28.789 215.36 27.845 L 208.342 27.845 L 208.342 44.939 Z"/>
  </g>
  <g>
   <path fill="#FFFFFF" d="M 189.522 156.825 L 189.522 148.67 L 57.076 148.67 L 57.076 156.825 L 189.522 156.825 Z"/>
   <path fill="#FFFFFF" d="M 189.522 132.36 L 189.522 124.205 L 140.592 124.205 L 140.592 132.36 L 189.522 132.36 Z"/>
   <path fill="#FFFFFF" d="M 189.522 180.825 L 189.522 172.67 L 57.076 172.67 L 57.076 180.825 L 189.522 180.825 Z"/>
  </g>
  <g>
   <path fill="#FEE1C2" d="M 123.299 132.36 L 71.574 156.499 L 95.712 104.773 L 100.885 99.601 L 128.472 127.187 L 123.299 132.36 Z"/>
   <path fill="#5D5D5D" d="M 79.252 140.038 L 71.574 156.499 L 88.034 148.821 C 88.034 148.821 89.662 147.862 88.808 147.008 C 87.953 146.153 85.382 147.031 85.382 147.031 C 85.382 147.031 87.091 144.429 85.376 142.714 C 83.662 140.999 81.06 142.708 81.06 142.708 C 81.06 142.708 81.919 140.119 81.057 139.257 C 80.195 138.395 79.252 140.038 79.252 140.038 Z"/>
   <linearGradient id="_lgradient_75" x1="0" x2="1" y1="1.22" y2="1.22" gradientTransform="matrix(27.587,27.587,-90.357,90.357,182.621,17.865)" gradientUnits="userSpaceOnUse">
    <stop offset="0%" style="stop-color:rgb(88,132,244)"/>
    <stop offset="27.8%" style="stop-color:rgb(88,132,244)"/>
    <stop offset="27.8%" style="stop-color:rgb(47,95,221)"/>
    <stop offset="70.735%" style="stop-color:rgb(47,95,221)"/>
    <stop offset="70.936%" style="stop-color:rgb(35,77,184)"/>
    <stop offset="100%" style="stop-color:rgb(35,77,184)"/>
   </linearGradient>
   <path fill="url(#_lgradient_75)" d="M 95.712 104.773 C 99.161 101.325 105.195 110.808 100.023 115.98 C 108.644 107.359 120.713 119.429 112.092 128.05 C 117.265 122.877 126.748 128.912 123.299 132.36 L 210.208 45.451 L 182.621 17.865 L 95.712 104.773 Z"/>
  </g>
 </g>
</svg>
